svg/black/add.svg

<?xml version="1.0" encoding="UTF-8"?>
<svg width="32px" height="32px" viewBox="0 0 32 32" version="1.1" xmlns="http://www.w3.org/2000/svg" xmlns:xlink="http://www.w3.org/1999/xlink">
    <!-- Generator: Sketch 52.5 (67469) - http://www.bohemiancoding.com/sketch -->
    <title>svg/black/add</title>
    <desc>Created with Sketch.</desc>
    <g id="black/add" stroke="none" stroke-width="1" fill="none" fill-rule="evenodd">
        <path d="M16,32 C7.163444,32 0,24.836556 0,16 C0,7.163444 7.163444,0 16,0 C24.836556,0 32,7.163444 32,16 C32,24.836556 24.836556,32 16,32 Z M24.984,17.6312 L20.056,17.6312 L19.176,14.9912 L24.9752,14.9912 C25.388309,14.9912 25.7232,14.656309 25.7232,14.2432 C25.7232,13.830091 25.388309,13.4952 24.9752,13.4952 L18.7008,13.4952 L16.184,5.8216 C16.1204612,5.29585526 15.6830529,4.89497299 15.1537742,4.87740357 C14.6244954,4.85983415 14.1614648,5.23082633 14.0632,5.7512 L8.044,24.0552 C8.02805324,24.1542959 8.02805324,24.2553041 8.044,24.3544 C8.05277631,24.8584148 8.43115102,25.2791224 8.93141742,25.3411023 C9.43168382,25.4030822 9.90128843,25.087434 10.0328,24.6008 L15.084,9.2008 L16.5272,13.4952 L15.2776,13.4952 C15.0103653,13.4952 14.7634303,13.637768 14.629813,13.8692 C14.4961956,14.100632 14.4961956,14.385768 14.629813,14.6172 C14.7634303,14.848632 15.0103653,14.9912 15.2776,14.9912 L17.0376,14.9912 L17.9176,17.6312 L15.2776,17.6312 C14.864491,17.6312 14.5296,17.966091 14.5296,18.3792 C14.5296,18.792309 14.864491,19.1272 15.2776,19.1272 L18.4368,19.1272 L19.8624,23.3512 L12.3032,23.3512 C11.7199873,23.3512 11.2472,23.8239873 11.2472,24.4072 C11.2472,24.9904127 11.7199873,25.4632 12.3032,25.4632 L21.244,25.4632 C21.7980521,25.4632 22.2472,25.0140521 22.2472,24.46 C22.2478109,24.3079857 22.214753,24.1577222 22.1504,24.02 L20.54,19.1272 L24.94,19.1272 C25.353109,19.1272 25.688,18.792309 25.688,18.3792 C25.688,17.966091 25.353109,17.6312 24.94,17.6312 L24.984,17.6312 Z" id="Combined-Shape" fill="#000000" fill-rule="nonzero"></path>
    </g>
</svg>

<svg width="32" height="32" viewBox="0 0 32 32" xmlns="http://www.w3.org/2000/svg"><path d="M16 32C7.163 32 0 24.837 0 16S7.163 0 16 0s16 7.163 16 16-7.163 16-16 16zm8.984-14.369h-4.928l-.88-2.64h5.8a.748.748 0 1 0 0-1.496H18.7l-2.517-7.673a1.074 1.074 0 0 0-2.12-.07l-6.02 18.303c-.016.1-.016.2 0 .3a1.012 1.012 0 0 0 1.989.246l5.051-15.4 1.443 4.294h-1.25a.748.748 0 1 0 0 1.496h1.76l.88 2.64h-2.64a.748.748 0 1 0 0 1.496h3.16l1.425 4.224h-7.559a1.056 1.056 0 1 0 0 2.112h8.941c.554 0 1.003-.449 1.003-1.003a1.03 1.03 0 0 0-.097-.44l-1.61-4.893h4.4a.748.748 0 1 0 0-1.496h.044z"/></svg>
